X:1
T:Title
%%score { ( 1 3 ) | 2 }
L:1/8
M:9/8
K:Db
V:1 treble nm="Grand Piano"
V:3 treble 
V:2 bass 
V:1
 z3 z3[Q:1/4=105] [DF]2 [EG] | [FA]3- [FA]2 [Fd] [Ec][Fd][Ge] | [Fd]3 A3 D2 F | %3
 [FA]3- [FA]2 [GB] [FA]2 [Fd] |[M:3/4] c6 |[M:3/8] ABc |[M:9/8] z3 z3 .G3 | [DF]3 [A,FA]3 A2 A | %8
 A3- A2 A A2 =G |[M:3/4] [CA]6 |[M:3/8] [FA]2 [GB] |[M:9/8] A2 G G3 [EG]2 [FA] | [EG]2 F F3 A2 =A | %13
 B2 c d3 [Be]3 |[M:3/4] [=Af]6 |[M:3/8] A2 f |[M:9/8] f3 e3 A2 e | [Ge]3 [Fd]3 d2 d | %18
 d3- d2 d d2 [EGc] |[M:3/4] [DFd]6 |] %20
V:2
 z3 z3 [D,A,]2 [D,A,] | [D,D]3- [D,D]2 [D,A,] [A,,A,]2 [A,,A,] | [D,A,]3 [D,F,D]3 [D,F,]2 [D,A,D] | %3
 [D,D]3- [D,D]2 [D,D] [D,D]2 [D,A,] |[M:3/4] [A,E]6 |[M:3/8] [G,A,E]2 [G,A,E] | %6
[M:9/8] [F,A,D]3 [F,D]3 .[E,A,E]2 A,, | D,3 D,3 [F,A,C]2 [_F,A,=D] | %8
 [E,CE]3- [E,CE]2 [E,CE] [E,B,D]2 [E,B,D] |[M:3/4] [A,,A,]6 |[M:3/8] [D,A,]2 [D,A,] | %11
[M:9/8][K:treble] [A,F]2 [A,E][K:bass] [A,E]3 [A,,A,]2 [A,,A,] | %12
 [D,A,]2 [D,A,D] [D,A,D]3[K:treble] [DF]2 [CEF] | [B,DF]2 [=A,CF] [B,F]3[K:bass] [G,B,]3 | %14
[M:3/4] [F,C]6 |[M:3/8] A,2[K:treble] [A,DA] |[M:9/8] [A,CA]3 [A,CG]3 A,2 [A,CG] | %17
 [D,D]3 [D,D]3[K:treble] [B,DF]2 [=A,D=G] | [A,FA]3- [A,FA]2 [A,DF] [A,EG]2[K:bass] A,, | %19
[M:3/4] D,6 |] %20
V:3
 x9 | x9 | x9 | x9 |[M:3/4] x6 |[M:3/8] x3 |[M:9/8] d3 A3 z B,[CEG] | x9 | x9 |[M:3/4] x6 | %10
[M:3/8] x3 |[M:9/8] x9 | x9 | x9 |[M:3/4] x6 |[M:3/8] x3 |[M:9/8] x9 | x9 | x9 |[M:3/4] x6 |] %20

